!!!ONB: MCCC : IJH0433_04 : Extracted Monophonic Melody
!!!COM: Haydn, Joseph
!!!OPR: String Quartet in D major
!!!OMV: 4
!!!SCT: Hob.III:79 ; Op.76 No.5
!!!ODT: 1796///
**kern
*thru
*k[f#c#]
*D:
*clefF
*M2/4
8ccc#
=1
4ddd
4r
=2
4.r
8ccc#
=3
4ddd
4r
=4
4.r
8ccc#
=5
8ddd
8ccc#
8ddd
8ccc#
=6
4ddd
4r
=7
2r
=8
4.r
16aa
16gg
=9
8ff#
16ff#
16ee
8dd
8ee
=10
16ff#
16gg
16ff#
16ee
8dd
16aa
16gg
=11
8ff#
16ff#
16ee
8dd
8ee
=12
4ff#
8dd
8r
=13
2r
=14
2r
=15
2r
=16
4.r
8ccc#
=17
4ddd
8r
8ccc#
=18
4ddd
8r
8ccc#
=19
8ddd
8ccc#
8ddd
8ccc#
=20
4ddd
8r
8aa#
=21
4bb
8r
8aa#
=22
4bb
8r
8gg#
=23
8aa
8gg#
8aa
8gg#
=24
4aa
4r
=25
2r
=26
4.r
16ee
16dd
=27
8cc#
16cc#
16b
8a
8b
=28
16cc#
16dd
16cc#
16b
8a
16ee
16dd
=29
8cc#
16cc#
16b
8a
8b
=30
4cc#
8a
8r
=31
2r
=32
2r
=33
2r
=34
4.r
8gg#
=35
8aa
8gg#
8aa
8gg#
=36
4aa
8r
8ff#
=37
8gg
8ff#
8gg
8ff#
=38
4gg
8r
8dd#
=39
8ee
8dd#
8ee
8ff#
=40
8gg
8ff#
8gg
8cc#
=41
8dd
8cc#
8dd
8ee
=42
8ff#
8ee
8ff#
8aa#
=43
8bb
8aa#
8bb
8ccc#
=44
8ddd
8ccc#
8ddd
8aa#
=45
8bb
8aa#
8bb
8aa
=46
4gg#
4r
=47
2r
=48
2r
=49
2r
=50
8gg
8gg
8gg
8gg
=51
8gg
8gg
8gg
8gg
=52
8ff#
16ff#
16gg#
8aa#
16aa#
16bb
=53
8ccc#
16ccc#
16ddd
8eee
8aa#
=54
8bb
16bb
16ccc#
8ddd
16ddd
16eee
=55
8fff#
16fff#
16eee
16ddd
16ccc#
16bb
16aa
=56
8gg#
16ee
16ff#
8gg#
16gg#
16aa
=57
8bb
16bb
16ccc#
8ddd
8gg#
=58
8aa
16aa
16bb
8ccc#
16ccc#
16ddd
=59
8eee
16eee
16ddd
16ccc#
16bb
16aa
16gg#
=60
8ff#
16aa
16gg#
16ff#
16ee
16dd
16cc#
=61
8b
16ff#
16ee
16dd
16cc#
16b
16a
=62
8g#
16ff#
16ee
16dd
16cc#
16b
16a
=63
8g#
16b
16a
16g#
16f#
16e
16d
=64
8c#
16A
16B
8c#
16A
16B
=65
8c#
16B
16c#
8d
16c#
16d
=66
8e
16d
16e
8f#
16d
16e
=67
8f#
16e
16f#
8g#
16f#
16g#
=68
8a
16f#
16g#
8a
16f#
16g#
=69
8a
16g#
16a
8b
16a
16b
=70
2cc
=71
2a
=72
2ff
=73
4dd
8r
8b-
=74
4a
8r
8a
=75
4g#
8r
8g#
=76
8a
16A
16B
8c#
16c#
16d
=77
8e
8e
8d
8c#
=78
8B
16B
16c#
8d
16d
16e
=79
8f#
8f#
8e
8d
=80
8c#
16a
16b
8cc#
16cc#
16dd
=81
8ee
8ee
8dd
8cc#
=82
8b
8b
8b
8b
=83
8b
8b
8b
8b
=84
8b
8b
8b
8b
=85
8b
8b
8b
8b
=86
8b
8b
8b
8b
=87
8b
8b
8b
8b
=88
8a
8r
8cc#
8r
=89
8dd
8r
8b
8r
=90
4a
4r
=91
2r
=92
2r
=93
2r
=94
2r
=95
2r
=96
4.r
16ee
16ff#
=97
8gg#
16gg#
16aa
8bb
16bb
16ccc#
=98
4ddd
8bb
16gg#
16aa
=99
8bb
16bb
16ccc#
8ddd
16ddd
16eee
=100
2fff#
=101
2ggg#
=102
16aaa
16ggg#
16fff#
16eee
16ddd
16ccc#
16bb
16aa
=103
16bb
16aa
16bb
16ccc#
16ddd
16eee
16fff#
16ggg#
=104
16aaa
16ggg#
16fff#
16eee
16ddd
16ccc#
16bb
16aa
=105
16bb
16aa
16bb
16ccc#
16ddd
16eee
16fff#
16ggg#
=106
16aaa
16ggg#
16fff#
16eee
16ddd
16ccc#
16bb
16aa
=107
16bb
16aa
16bb
16ccc#
16ddd
16eee
16fff#
16ggg#
=108
8aaa
8r
8bbb
8r
=109
8cccc#
8r
8dddd
8r
=110
4eeee
4r
=111
2r
=112
16ff#
16gg#
16ff#
16ee#
16ff#
16gg#
16ff#
16ee#
=113
8ff#
8gg#
8aa
8ff#
=114
8ee
8aa
8cc#
8ee
=115
8ee
8dd
8cc#
8b
=116
8a
8ee
8e
8b
=117
8cc#
8ee
8e
8g#
=118
8a
8ee
8e
8b
=119
8cc#
8ee
8e
8g#
=120
4a
8r
8b
=121
4cc#
8r
8dd
=122
4ee
8r
8ff#
=123
4gg
8r
8aa
=124
4bb
4r
=125
4.r
8ccc#
=126
2ddd[
=127
4ddd]
4bb-
=128
4ff
4dd
=129
4b-
4b-
=130
4f
4d
=131
4B-
4r
=132
2r
=133
4.r
16ff
16ee-
=134
8dd
16dd
16cc
8b-
8cc
=135
16dd
16ee-
16dd
16cc
8b-
16ff
16ee-
=136
8dd
16dd
16cc
8b-
8cc
=137
4dd
8b-
8r
=138
2r
=139
2r
=140
2r
=141
8r
16b
16cc
8dd
16dd
16ee-
=142
8ff
16ff
16gg
8aa-
8b
=143
4cc
4r
=144
2r
=145
2r
=146
2r
=147
8r
16cc#
16dd
8ee
16ee
16ff
=148
8gg
16gg
16aa
8bb-
8cc#
=149
4dd
8r
16aa
16gg
=150
8ff
16ff
16ee
8dd
8ee
=151
16ff
16gg
16ff
16ee
8dd
16aa
16gg
=152
8ff
16ff
16ee
8dd
8ee
=153
4ff
8dd
8bb-
=154
8bb-
8bb-
8bb-
8bb-
=155
16bb-
16ccc
16bb-
16aa
8gg
8ccc
=156
8ccc
8ccc
8ccc
8ccc
=157
16ccc
16ddd
16ccc
16bb-
8aa
8ddd
=158
8ddd
8ddd
8ddd
8ddd
=159
16bb-
16ccc
16bb-
16aa
8gg
8r
=160
2r
=161
4.r
8b
=162
8b
8b
8b
8b
=163
16cc
16b
16cc
16dd
8ee
8aa
=164
8aa
8aa
8aa
8aa
=165
16gg#
16aa
16gg#
16ff#
8ee
8b
=166
8b
8b
8b
8r
=167
4.r
8b
=168
8b
8b
8b
8r
=169
4.r
8g
=170
8g
8g
8g
8r
=171
4.r
8g
=172
8g
8g
8g
8g
=173
8g
8g
8g
8g
=174
8g
8g
8g
8g
=175
8f#
16f#
16g#
8a#
16a#
16b
=176
8cc#
16cc#
16dd
8ee
8a#
=177
8b
16b
16cc#
8dd
16dd
16ee
=178
8ff#
16gg#
16aa#
8bb
8dd
=179
8cc#
16ee
16ff#
8gg
8ee
=180
8dd
8ff#
8a#
8cc#
=181
8b
16B
16c#
8d
16c#
16d
=182
8e
16d
16e
8f#
16e
16f#
=183
8g
8r
8gg
8r
=184
8ff#
8r
8a#
8r
=185
4b
4r
=186
2r
=187
2r
=188
2r
=189
8dd
8dd
8dd
8dd
=190
8dd
8dd
8dd
8dd
=191
8gg
8gg
8gg
8gg
=192
8gg
8gg
8gg
8ccc#
=193
4ddd
8r
8ccc#
=194
4ddd
8r
8ccc#
=195
4ddd
8r
8ccc#
=196
8ddd
8ccc#
8ddd
8ccc#
=197
4ddd
8r
8aa#
=198
8bb
8aa#
8bb
8aa#
=199
4bb
8r
8ff#
=200
8gg
8ff#
8gg
8ff#
=201
4gg
8r
8dd#
=202
8ee
8dd#
8ee
8dd#
=203
8ee
16ee
16ff#
8gg
16gg
16aa
=204
8bb
8gg
8ee
8dd
=205
8cc#
16a
16b
8cc#
16cc#
16dd
=206
8ee
16ee
16ff#
8gg
8cc#
=207
8dd
16ff#
16gg
8aa
16bb
16ccc#
=208
8ddd
16ddd
16ccc#
8ddd
8gg#
=209
8aa
16aa
16bb
8ccc#
16ccc#
16ddd
=210
8eee
16eee
16fff#
8ggg
8ccc#
=211
8ddd
8ccc#
8ddd
8ccc#
=212
8ddd
8ccc#
8ddd
8gg#
=213
8aa
8gg#
8aa
8ff#
=214
8gg
8ff#
8gg
8ee#
=215
8ff#
8ee#
8ff#
8dd#
=216
8ee
8dd#
8ee
8cc#
=217
8dd
8cc#
8dd
8ee
=218
8ff#
8ee
8ff#
8gg
=219
8aa
8gg#
8aa
8aa#
=220
8bb
8gg
8ee
8dd
=221
4cc#
4r
=222
2r
=223
2r
=224
2r
=225
8cc
8cc
8cc
8cc
=226
8cc
8cc
8cc
8cc
=227
8b
16b
16cc#
8dd#
16dd#
16ee
=228
8ff#
16ff#
16gg
8aa
8dd#
=229
8ee
16ee
16ff#
8gg
16gg
16aa
=230
8bb
16bb
16aa
16gg
16ff#
16ee
16dd
=231
8cc#
16a
16b
8cc#
16cc#
16dd
=232
8ee
16ee
16ff#
8gg
8cc#
=233
8dd
16dd
16ee
8ff#
16ff#
16gg
=234
8aa
16aa
16gg
16ff#
16ee
16dd
16cc#
=235
8b
16ddd
16ccc#
16bb
16aa
16gg
16ff#
=236
8ee
16bb
16aa
16gg
16ff#
16ee
16dd
=237
16cc#
16dd
16ee
16ff#
16gg
16aa
16bb
16ccc#
=238
8ddd
8eee
8fff#
8ddd
=239
8bb
8ddd
8bb
8gg
=240
8ff#
8aa
8cc#
8ee
=241
8dd
16d
16e
8f#
16f#
16g
=242
8a
8a
8g
8f#
=243
8e
16e
16f#
8g
16g
16a
=244
8b
8b
8a
8g
=245
8f#
16dd
16ee
8ff#
16ff#
16gg
=246
8aa
8aa
8gg
8ff#
=247
8ee
8ee
8ee
8ee
=248
8ee
8ee
8ee
8ee
=249
8ee
8ee
8ee
8ee
=250
8ee
8ee
8ee
8ee
=251
8ee
8ee
8ee
8ee
=252
8ee
8ee
8ee
8ee
=253
8dd
8r
8ff#
8r
=254
8gg
8r
8ee
8r
=255
4dd
4r
=256
2r
=257
2r
=258
2r
=259
2r
=260
2r
=261
4.r
16a
16b
=262
8cc#
16cc#
16dd
8ee
16ee
16ff#
=263
4gg
8ee
16cc#
16dd
=264
8ee
16ee
16ff#
8gg
16gg
16aa
=265
2bb
=266
2ccc#
=267
16ddd
16ccc#
16bb
16aa
16gg
16ff#
16ee
16dd
=268
16ee
16dd
16ee
16ff#
16gg
16aa
16bb
16ccc#
=269
16ddd
16ccc#
16bb
16aa
16gg
16ff#
16ee
16dd
=270
16ee
16dd
16ee
16ff#
16gg
16aa
16bb
16ccc#
=271
16ddd
16ccc#
16bb
16aa
16gg
16ff#
16ee
16dd
=272
16ee
16dd
16ee
16ff#
16gg
16aa
16bb
16ccc#
=273
8ddd
8r
8eee
8r
=274
8fff#
8r
8ggg
8r
=275
4aaa
4r
=276
2r
=277
16bb
16ccc#
16bb
16aa#
16bb
16ccc#
16bb
16aa#
=278
8bb
8ccc#
8ddd
8bb
=279
8aa
8ddd
8ff#
8aa
=280
8aa
8gg
8ff#
8ee
=281
8dd
8aa
8a
8ee
=282
8ff#
8aa
8a
8cc#
=283
8dd
8aa
8a
8ee
=284
8ff#
8aa
8a
8cc#
=285
4dd
8r
8ee
=286
4ff#
8r
8ccc#
=287
4ddd
8r
8ccc#
=288
8ddd
8ccc#
8ddd
8ccc#
=289
4ddd
4r
=290
4ff#
4r
=291
4d
4r
==
*-
